symbols/web/dialer_sip/materialsymbolsoutlined/dialer_sip_20px.svg

<svg xmlns="http://www.w3.org/2000/svg" height="20" width="20"><path d="M13.354 6.625V2.5h.834v4.125Zm-3.333 0v-.833h1.667v-.813h-1.667V2.5h2.5v.833h-1.667v.813h1.667v2.479Zm5 0V2.5H17.5v2.479h-1.646v1.646Zm.833-2.479h.813v-.813h-.813Zm.792 13.354q-2.729 0-5.281-1.188-2.553-1.187-4.521-3.156-1.969-1.968-3.156-4.521Q2.5 6.083 2.5 3.354q0-.354.26-.604.261-.25.615-.25h3.458q.292 0 .511.188.218.187.26.479l.584 2.979q.041.271-.021.5-.063.229-.229.396L5.917 9.104q.791 1.417 2.093 2.729 1.302 1.313 2.865 2.25l1.958-2q.209-.208.459-.281.25-.073.541-.031l3 .625q.292.042.479.26.188.219.188.511v3.458q0 .354-.25.615-.25.26-.604.26ZM5.083 7.438l1.313-1.313-.354-1.875h-1.75q.104.833.281 1.615.177.781.51 1.573Zm10.667 8.27v-1.75l-1.917-.396-1.312 1.355q.812.312 1.604.5.792.187 1.625.291Zm-3.229-.791ZM5.083 7.438Z"/></svg>

<svg xmlns="http://www.w3.org/2000/svg" height="20" width="20"><path d="M13.354 6.625V2.5H14.188V6.625ZM10.021 6.625V5.792H11.688V4.979H10.021V2.5H12.521V3.333H10.854V4.146H12.521V6.625ZM15.021 6.625V2.5H17.5V4.979H15.854V6.625ZM15.854 4.146H16.667V3.333H15.854ZM16.646 17.5Q13.917 17.5 11.365 16.312Q8.812 15.125 6.844 13.156Q4.875 11.188 3.688 8.635Q2.5 6.083 2.5 3.354Q2.5 3 2.76 2.75Q3.021 2.5 3.375 2.5H6.833Q7.125 2.5 7.344 2.688Q7.562 2.875 7.604 3.167L8.188 6.146Q8.229 6.417 8.167 6.646Q8.104 6.875 7.938 7.042L5.917 9.104Q6.708 10.521 8.01 11.833Q9.312 13.146 10.875 14.083L12.833 12.083Q13.042 11.875 13.292 11.802Q13.542 11.729 13.833 11.771L16.833 12.396Q17.125 12.438 17.312 12.656Q17.5 12.875 17.5 13.167V16.625Q17.5 16.979 17.25 17.24Q17 17.5 16.646 17.5ZM5.083 7.438 6.396 6.125Q6.396 6.125 6.396 6.125Q6.396 6.125 6.396 6.125L6.042 4.25Q6.042 4.25 6.042 4.25Q6.042 4.25 6.042 4.25H4.292Q4.292 4.25 4.292 4.25Q4.292 4.25 4.292 4.25Q4.396 5.083 4.573 5.865Q4.75 6.646 5.083 7.438ZM15.75 15.708Q15.75 15.708 15.75 15.708Q15.75 15.708 15.75 15.708V13.958Q15.75 13.958 15.75 13.958Q15.75 13.958 15.75 13.958L13.833 13.562Q13.833 13.562 13.833 13.562Q13.833 13.562 13.833 13.562L12.521 14.917Q13.333 15.229 14.125 15.417Q14.917 15.604 15.75 15.708ZM12.521 14.917Q12.521 14.917 12.521 14.917Q12.521 14.917 12.521 14.917Q12.521 14.917 12.521 14.917Q12.521 14.917 12.521 14.917Q12.521 14.917 12.521 14.917Q12.521 14.917 12.521 14.917Q12.521 14.917 12.521 14.917Q12.521 14.917 12.521 14.917ZM5.083 7.438Q5.083 7.438 5.083 7.438Q5.083 7.438 5.083 7.438Q5.083 7.438 5.083 7.438Q5.083 7.438 5.083 7.438Q5.083 7.438 5.083 7.438Q5.083 7.438 5.083 7.438Q5.083 7.438 5.083 7.438Q5.083 7.438 5.083 7.438Z"/></svg>
